app/img/icomoon/map.svg

<svg width="12" height="12" viewBox="0 0 12 12" fill="none" xmlns="http://www.w3.org/2000/svg">
<path d="M12 0.234375L11.2969 0.546875L7.98438 1.96875L4.17188 0.53125L3.98438 0.46875L3.79688 0.546875L0.296875 2.04688L0 2.17188V11.7656L0.703125 11.4531L4.01562 10.0312L7.82812 11.4688L8.01562 11.5312L8.20312 11.4531L11.7031 9.95312L12 9.82812V0.234375ZM4.5 1.71875L7.5 2.84375V10.2812L4.5 9.15625V1.71875ZM3.5 1.75V9.17188L1 10.25V2.82812L3.5 1.75ZM11 1.75V9.17188L8.5 10.25V2.82812L11 1.75Z" fill="white"/>
<path fill-rule="evenodd" clip-rule="evenodd" d="M12 9.82812V0.234375L11.2969 0.546875L7.98438 1.96875L4.17188 0.53125L3.98438 0.46875L3.79688 0.546875L0.296875 2.04688L0 2.17188V11.7656L0.703125 11.4531L4.01562 10.0312L7.82812 11.4688L8.01562 11.5312L8.20312 11.4531L11.7031 9.95312L12 9.82812ZM8.5 10.25V2.82812L11 1.75V9.17188L8.5 10.25ZM7.5 2.84375L4.5 1.71875V9.15625L7.5 10.2812V2.84375ZM3.5 1.75L1 2.82812V10.25L3.5 9.17188V1.75Z" fill="white"/>
</svg>

<svg width="12" height="12" fill="none" xmlns="http://www.w3.org/2000/svg"><path d="M12 .234l-.703.313-3.313 1.422L4.172.53 3.984.47l-.187.078-3.5 1.5L0 2.172v9.594l.703-.313 3.313-1.422 3.812 1.438.188.062.187-.078 3.5-1.5.297-.125V.234zM4.5 1.72l3 1.125v7.437l-3-1.125V1.72zm-1 .031v7.422L1 10.25V2.828L3.5 1.75zm7.5 0v7.422L8.5 10.25V2.828L11 1.75z" fill="#fff"/><path fill-rule="evenodd" clip-rule="evenodd" d="M12 9.828V.234l-.703.313-3.313 1.422L4.172.53 3.984.47l-.187.078-3.5 1.5L0 2.172v9.594l.703-.313 3.313-1.422 3.812 1.438.188.062.187-.078 3.5-1.5.297-.125zm-3.5.422V2.828L11 1.75v7.422L8.5 10.25zm-1-7.406l-3-1.125v7.437l3 1.125V2.844zm-4-1.094L1 2.828v7.422l2.5-1.078V1.75z" fill="#fff"/></svg>
